X:1     %Music
T:Through the Grove
B:Kidson F, 1891, Traditional Tunes, Oxford, Taphouse and Son
Z:Frank Kidson
F:http://www.folkinfo.org/songs
M:6/8     %Meter
L:1/8     %
K:D
D |A,2 D D2 D |E F E E2 E |D2 F A2 A | G2 F E2 
w:As through the grove young John-ny did pass,  He met Miss Mol-ly,  "Come my lass," 
D |D2 A, (A,B,) C |D2-D3D |D2 A, (A,B,) C | D3-D2
w:And took her by_ the _hand And took her by_ the hand;_
A |F2 G A2 A |B2 B A2  G |F2 G A2 A | B2 B A2
w:Says he, "Sweet maid, if you'll a-gree to go to yon-der grove with me,
 G |F2 F F2 D |E E E E2 E |D2 F A2 A | G2 F E2 
w: Oh! there we'll have some se-ri-ous talk, We'll take a sweet com-mod-ious walk
D |D2 A, (A,B,) C |D2-D3D |D2 A, (A,B,) C |D3-D2 |]
w: And you shall be_ my _bride And you shall be_ my bride._
